src/board.svg

<?xml version="1.0" encoding="UTF-8" standalone="no"?>
<!DOCTYPE svg PUBLIC "-//W3C//DTD SVG 1.1//EN" "http://www.w3.org/Graphics/SVG/1.1/DTD/svg11.dtd">
<svg width="100%" height="100%" viewBox="0 0 490 379" version="1.1" xmlns="http://www.w3.org/2000/svg" xmlns:xlink="http://www.w3.org/1999/xlink" xml:space="preserve" xmlns:serif="http://www.serif.com/" style="fill-rule:evenodd;clip-rule:evenodd;stroke-linejoin:round;stroke-miterlimit:2;">
    <g transform="matrix(1,0,0,1,-176.364,-149.539)">
        <g>
            <g transform="matrix(1,0,0,1,-312.302,168.677)">
                <rect x="524" y="353.641" width="453.787" height="2.315" style="fill:rgb(63,61,86);"/>
                <g transform="matrix(-1,7.65714e-16,-7.65714e-16,-1,1671.93,427.023)">
                    <rect x="717.381" y="88.093" width="348.275" height="295.847" style="fill:rgb(108,99,255);"/>
                </g>
                <g transform="matrix(1,0,0,1,-111.106,-45.0091)">
                    <path d="M1011.37,344.636L659.318,344.636L659.318,45.009L1011.37,45.009L1011.37,344.636ZM663.098,340.856L1007.59,340.856L1007.59,48.789L663.098,48.789L663.098,340.856Z" style="fill:rgb(63,61,86);fill-rule:nonzero;"/>
                </g>
                <g transform="matrix(1,0,0,1,-13.9473,-89.6609)">
                    <g transform="matrix(1,0,0,1,86.4256,0.875595)">
                        <path d="M620.23,429.003L556.787,429.003L556.787,398.551L559.325,398.551L559.325,426.465L617.692,426.465L617.692,398.551L620.23,398.551L620.23,429.003Z" style="fill:rgb(63,61,86);fill-rule:nonzero;"/>
                        <path d="M575.855,394.401L588.509,416.315L601.162,394.401L575.855,394.401Z" style="fill:rgb(207,204,224);fill-rule:nonzero;"/>
                    </g>
                    <g transform="matrix(1,0,0,1,12,0)">
                        <path d="M782.643,430.1L719.2,430.1L719.2,399.648L721.738,399.648L721.738,427.563L780.105,427.563L780.105,399.648L782.643,399.648L782.643,430.1Z" style="fill:rgb(63,61,86);fill-rule:nonzero;"/>
                        <path d="M762.341,403.454L752.191,403.454L752.191,393.304L749.653,393.304L749.653,403.454L739.502,403.454L739.502,405.992L749.653,405.992L749.653,416.143L752.191,416.143L752.191,405.992L762.341,405.992L762.341,403.454Z" style="fill:rgb(207,204,224);fill-rule:nonzero;"/>
                    </g>
                    <g transform="matrix(1,0,0,1,-50.1673,2.50238)">
                        <path d="M943.787,428.646L880.345,428.646L880.345,398.193L882.882,398.193L882.882,426.108L941.25,426.108L941.25,398.193L943.787,398.193L943.787,428.646Z" style="fill:rgb(63,61,86);fill-rule:nonzero;"/>
                        <path d="M923.114,396.553L921.32,394.758L912.066,404.012L902.812,394.758L901.018,396.553L910.272,405.806L901.018,415.06L902.812,416.854L912.066,407.601L921.32,416.854L923.114,415.06L913.86,405.806L923.114,396.553Z" style="fill:rgb(207,204,224);fill-rule:nonzero;"/>
                    </g>
                </g>
            </g>
            <g transform="matrix(0.489232,0,0,0.489232,288.996,158.275)">
                <g transform="matrix(1,0,0,1,-884.924,-25.8389)">
                    <g transform="matrix(1,0,0,1,-40.4096,-54.8347)">
                        <path d="M722.77,398.628C722.77,398.628 679.553,432.585 701.161,440.302C722.77,448.019 736.661,412.52 736.661,412.52L722.77,398.628Z" style="fill:rgb(255,184,184);fill-rule:nonzero;"/>
                    </g>
                    <g transform="matrix(1,0,0,1,-40.4096,-54.8347)">
                        <path d="M724.313,386.28L715.053,401.715C715.053,401.715 730.487,401.715 733.574,424.867L745.922,409.433L724.313,386.28Z" style="fill:rgb(207,204,224);fill-rule:nonzero;"/>
                    </g>
                    <g transform="matrix(1,0,0,1,77.8356,7.98314)">
                        <path d="M811.35,675.375L812.894,721.679L794.372,732.483L786.655,727.853L788.198,675.375L811.35,675.375Z" style="fill:rgb(255,184,184);fill-rule:nonzero;"/>
                    </g>
                    <g transform="matrix(1,0,0,1,-40.4096,-54.8347)">
                        <path d="M820.009,725.845L823.096,775.236L779.878,793.758L782.965,767.519C782.965,767.519 795.313,747.453 792.226,725.845L820.009,725.845Z" style="fill:rgb(255,184,184);fill-rule:nonzero;"/>
                    </g>
                    <g transform="matrix(1,0,0,1,-40.4096,-54.8347)">
                        <path d="M886.378,353.868C886.378,353.868 911.074,418.693 915.704,458.824C920.335,498.954 928.052,605.454 928.052,605.454L943.487,742.823L900.269,748.997L881.748,610.084L840.074,472.715L830.813,610.084L823.096,735.106L782.965,736.649L779.878,606.997L762.9,441.846L772.161,363.128L886.378,353.868Z" style="fill:rgb(47,46,65);fill-rule:nonzero;"/>
                    </g>
                    <g transform="matrix(1,0,0,1,-40.4096,-54.8347)">
                        <path d="M909.53,787.584C909.53,787.584 912.062,761.661 930.861,776.166L934.226,773.692L949.661,807.649C949.661,807.649 968.182,833.888 935.769,836.975C903.356,840.062 906.443,807.649 906.443,807.649L903.356,793.758L904.9,784.661L909.53,787.584Z" style="fill:rgb(47,46,65);fill-rule:nonzero;"/>
                    </g>
                    <g transform="matrix(1,0,0,1,-40.4096,-54.8347)">
                        <path d="M820.009,756.714C827.736,761.132 832.473,769.423 832.357,778.323C832.357,793.758 830.813,795.301 830.813,795.301L807.661,801.475C807.661,801.475 792.226,799.932 782.965,809.192C773.705,818.453 727.4,824.627 727.4,812.279C727.4,799.932 765.987,779.866 765.987,779.866C765.987,779.866 777.446,760.514 785.608,762.473C793.77,764.432 796.857,767.519 796.857,769.062C796.857,770.606 792.226,781.41 792.226,781.41C792.226,781.41 818.465,775.236 820.009,756.714Z" style="fill:rgb(47,46,65);fill-rule:nonzero;"/>
                    </g>
                    <g transform="matrix(1,0,0,1,77.8356,7.98314)">
                        <circle cx="698.677" cy="62.616" r="38.587" style="fill:rgb(255,184,184);"/>
                    </g>
                    <g transform="matrix(1,0,0,1,-40.4096,-54.8347)">
                        <path d="M845.476,135.466L862.454,174.053L816.15,240.422C816.15,240.422 813.063,167.879 803.802,155.531C794.541,143.183 845.476,135.466 845.476,135.466Z" style="fill:rgb(255,184,184);fill-rule:nonzero;"/>
                    </g>
                    <g transform="matrix(1,0,0,1,77.8356,7.98314)">
                        <path d="M705.622,152.909L713.34,132.844L719.513,134.387L727.231,128.213L738.035,94.257L753.47,105.061L773.535,307.256L648.514,310.343L665.492,169.887L680.927,129.757L692.068,115.028L699.448,137.474L705.622,152.909Z" style="fill:rgb(207,204,224);fill-rule:nonzero;"/>
                    </g>
                    <g transform="matrix(1,0,0,1,-40.4096,-54.8347)">
                        <path d="M859.367,302.161L864.09,162.542C864.09,162.542 873.259,163.248 876.346,167.879C879.433,172.509 930.367,181.77 930.367,181.77L921.106,325.313C921.106,325.313 959.693,439.53 945.802,445.704C931.911,451.878 907.215,450.335 907.215,450.335L859.367,302.161Z" style="fill:rgb(87,90,137);fill-rule:nonzero;"/>
                    </g>
                    <g transform="matrix(1,0,0,1,-40.4096,-54.8347)">
                        <path d="M784.509,284.411L800.882,190.313L764.444,214.955L773.705,282.868L765.987,329.172C765.987,329.172 736.661,457.28 745.922,461.911C755.183,466.541 765.987,461.911 765.987,461.911L784.509,332.259L784.509,284.411Z" style="fill:rgb(87,90,137);fill-rule:nonzero;"/>
                    </g>
                    <g transform="matrix(1,0,0,1,-40.4096,-54.8347)">
                        <path d="M775.248,211.868L764.444,214.955L759.813,276.694L752.096,330.715L715.053,397.085C715.053,397.085 733.574,384.737 741.292,420.237L782.087,349.211L775.248,211.868Z" style="fill:rgb(87,90,137);fill-rule:nonzero;"/>
                    </g>
                    <g transform="matrix(1,0,0,1,-40.4096,-54.8347)">
                        <path d="M895.639,386.28C895.639,386.28 852.422,420.237 874.03,427.954C895.639,435.672 909.53,400.172 909.53,400.172L895.639,386.28Z" style="fill:rgb(255,184,184);fill-rule:nonzero;"/>
                    </g>
                    <g transform="matrix(1,0,0,1,77.8356,7.98314)">
                        <path d="M803.633,340.441L789.742,357.419L771.22,325.006L778.937,311.115L803.633,340.441Z" style="fill:rgb(207,204,224);fill-rule:nonzero;"/>
                    </g>
                    <g transform="matrix(1,0,0,1,-40.4096,-54.8347)">
                        <path d="M918.791,187.172L931.139,180.998C931.139,180.998 940.4,193.346 941.943,204.151C943.487,214.955 951.204,228.846 951.204,236.563C951.204,244.281 972.813,316.824 972.813,316.824L923.422,417.15C923.422,417.15 912.617,380.107 889.465,377.02L928.052,322.998L906.443,284.411L918.791,187.172Z" style="fill:rgb(87,90,137);fill-rule:nonzero;"/>
                    </g>
                    <g transform="matrix(1,0,0,1,-40.4096,-54.8347)">
                        <path d="M849.225,88.668L856.501,85.755C856.501,85.755 841.287,69.005 820.119,70.462L826.073,63.907C826.073,63.907 811.52,58.081 798.29,73.375C791.335,81.414 783.289,90.864 778.272,101.509L770.48,101.509L773.732,108.671L762.349,115.832L774.033,114.546C773.336,118.467 773.229,122.471 773.715,126.424C774.217,130.377 776.236,133.984 779.343,136.478C782.451,138.972 788.368,117.799 788.368,114.886L788.368,122.169C788.368,122.169 795.644,115.614 795.644,111.245L799.613,116.342L801.597,108.331L826.073,116.342L822.104,109.788L837.318,111.973L831.364,103.962C831.364,103.962 848.563,113.429 849.225,121.44C849.886,129.451 854.92,137.042 854.92,137.042C854.92,137.042 868.408,99.592 849.225,88.668Z" style="fill:rgb(47,46,65);fill-rule:nonzero;"/>
                    </g>
                    <g transform="matrix(1,0,0,1,77.8356,7.98314)">
                        <ellipse cx="730.318" cy="56.442" rx="4.322" ry="5.402" style="fill:rgb(255,184,184);"/>
                    </g>
                </g>
                <path d="M178.601,318.118L45.361,318.118L45.361,280.782L114.91,280.782L178.601,318.118Z" style="fill:rgb(108,99,255);fill-rule:nonzero;"/>
                <g transform="matrix(1,0,0,1,-118.245,-62.8178)">
                    <path d="M163.24,375.811L163.24,484.893L595.905,484.893L595.905,375.811L163.24,375.811ZM331.987,466.591L191.426,466.591L191.426,451.217L331.987,451.217L331.987,466.591ZM567.72,438.039L191.426,438.039L191.426,422.665L567.72,422.665L567.72,438.039ZM567.72,409.488L191.426,409.488L191.426,394.114L567.72,394.114L567.72,409.488Z" style="fill:rgb(63,61,86);fill-rule:nonzero;"/>
                </g>
                <path d="M178.601,141.685L45.361,141.685L45.361,104.348L114.91,104.348L178.601,141.685Z" style="fill:rgb(108,99,255);fill-rule:nonzero;"/>
                <g transform="matrix(1,0,0,1,-118.245,-62.8178)">
                    <path d="M163.24,201.574L163.24,310.655L595.905,310.655L595.905,201.574L163.24,201.574ZM331.987,292.353L191.426,292.353L191.426,276.979L331.987,276.979L331.987,292.353ZM413.249,263.802L191.426,263.802L191.426,248.428L413.249,248.428L413.249,263.802ZM567.72,235.25L191.426,235.25L191.426,219.876L567.72,219.876L567.72,235.25Z" style="fill:rgb(63,61,86);fill-rule:nonzero;"/>
                </g>
                <path d="M178.601,490.891L45.361,490.891L45.361,453.555L114.91,453.555L178.601,490.891Z" style="fill:rgb(108,99,255);fill-rule:nonzero;"/>
                <g transform="matrix(1,0,0,1,-118.245,-62.8178)">
                    <path d="M163.24,546.388L163.24,655.47L595.905,655.47L595.905,546.388L163.24,546.388ZM413.249,637.167L191.426,637.167L191.426,621.793L413.249,621.793L413.249,637.167ZM413.249,608.616L191.426,608.616L191.426,593.242L413.249,593.242L413.249,608.616ZM567.72,580.064L191.426,580.064L191.426,564.69L567.72,564.69L567.72,580.064Z" style="fill:rgb(63,61,86);fill-rule:nonzero;"/>
                </g>
                <g transform="matrix(1,0,0,1,-38.789,0)">
                    <path d="M600.285,223.679L538.789,223.679L538.789,162.183L580.519,162.183L580.519,163.647L540.254,163.647L540.254,222.215L598.821,222.215L598.821,192.931L600.285,192.931L600.285,223.679Z" style="fill:rgb(63,61,86);fill-rule:nonzero;"/>
                    <g transform="matrix(1,0,0,1,-118.245,-62.8178)">
                        <path d="M687.466,270.456C686.045,266.26 668.224,251.996 679.144,249.599L688.099,261.54L729.271,220.368L733.412,224.509L687.466,270.456Z" style="fill:rgb(207,204,224);fill-rule:nonzero;"/>
                    </g>
                    <path d="M600.285,397.916L538.789,397.916L538.789,336.42L580.519,336.42L580.519,337.885L540.254,337.885L540.254,396.452L598.821,396.452L598.821,367.168L600.285,367.168L600.285,397.916Z" style="fill:rgb(63,61,86);fill-rule:nonzero;"/>
                    <g transform="matrix(1,0,0,1,-118.245,-62.8178)">
                        <path d="M687.466,444.694C686.045,440.497 668.224,426.234 679.144,423.836L688.099,435.777L729.271,394.606L733.412,398.746L687.466,444.694Z" style="fill:rgb(207,204,224);fill-rule:nonzero;"/>
                    </g>
                    <path d="M600.285,571.421L538.789,571.421L538.789,509.926L580.519,509.926L580.519,511.39L540.254,511.39L540.254,569.957L598.821,569.957L598.821,540.673L600.285,540.673L600.285,571.421Z" style="fill:rgb(63,61,86);fill-rule:nonzero;"/>
                    <g transform="matrix(1,0,0,1,-118.245,-62.8178)">
                        <path d="M687.466,618.199C686.045,614.003 668.224,599.739 679.144,597.341L688.099,609.282L729.271,568.111L733.412,572.252L687.466,618.199Z" style="fill:rgb(207,204,224);fill-rule:nonzero;"/>
                    </g>
                </g>
            </g>
        </g>
    </g>
</svg>

<?xml version="1.0" encoding="UTF-8" standalone="no"?>
<!DOCTYPE svg  PUBLIC '-//W3C//DTD SVG 1.1//EN'  'http://www.w3.org/Graphics/SVG/1.1/DTD/svg11.dtd'>
<svg stroke-linejoin="round" xmlns="http://www.w3.org/2000/svg" clip-rule="evenodd" fill-rule="evenodd" xml:space="preserve" height="100%" width="100%" version="1.1" xmlns:serif="http://www.serif.com/" stroke-miterlimit="2" xmlns:xlink="http://www.w3.org/1999/xlink" viewBox="0 0 490 379">
    <g transform="translate(-176.36 -149.54)">
            <g transform="translate(-312.3 168.68)">
                <rect height="2.315" width="453.79" y="353.64" x="524" fill="#3f3d56"/>
                <g transform="matrix(-1 7.6571e-16 -7.6571e-16 -1 1671.9 427.02)">
                    <rect height="295.85" width="348.28" y="88.093" x="717.38" fill="#6c63ff"/>
                </g>
                <g transform="translate(-111.11 -45.009)">
                    <path fill="#3f3d56" d="m1011.4 344.64h-352.08v-299.63l352.08-0.001v299.63zm-348.3-3.78h344.5v-292.07l-344.5-0.001v292.07z" fill-rule="nonzero"/>
                </g>
                <g transform="translate(-13.947 -89.661)" fill-rule="nonzero">
                    <g transform="translate(86.426 .87560)">
                        <path fill="#3f3d56" d="m620.23 429h-63.44v-30.45h2.53v27.91h58.37v-27.91h2.54v30.45z"/>
                        <path fill="#cfcce0" d="m575.86 394.4l12.65 21.92 12.65-21.92h-25.3z"/>
                    </g>
                    <g transform="translate(12)">
                        <path fill="#3f3d56" d="m782.64 430.1h-63.44v-30.45h2.54v27.91h58.36v-27.91h2.54v30.45z"/>
                        <path fill="#cfcce0" d="m762.34 403.45h-10.15v-10.15h-2.54v10.15h-10.15v2.54h10.15v10.15h2.54v-10.15h10.15v-2.54z"/>
                    </g>
                    <g transform="translate(-50.167 2.5024)">
                        <path fill="#3f3d56" d="m943.79 428.65h-63.45v-30.46h2.54v27.92h58.37v-27.92h2.54v30.46z"/>
                        <path fill="#cfcce0" d="m923.11 396.55l-1.79-1.79-9.25 9.25-9.26-9.25-1.79 1.79 9.25 9.26-9.25 9.25 1.79 1.79 9.26-9.25 9.25 9.25 1.79-1.79-9.25-9.25 9.25-9.26z"/>
                    </g>
                </g>
            </g>
            <g transform="matrix(.48923 0 0 .48923 289 158.28)">
                <g transform="translate(-884.92 -25.839)">
                    <g transform="translate(-40.41 -54.835)">
                        <path fill="#ffb8b8" d="m722.77 398.63s-43.22 33.95-21.61 41.67 35.5-27.78 35.5-27.78l-13.89-13.89z" fill-rule="nonzero"/>
                    </g>
                    <g transform="translate(-40.41 -54.835)">
                        <path fill="#cfcce0" d="m724.31 386.28l-9.26 15.44s15.44 0 18.52 23.15l12.35-15.44-21.61-23.15z" fill-rule="nonzero"/>
                    </g>
                    <g transform="translate(77.836 7.9831)">
                        <path fill="#ffb8b8" d="m811.35 675.38l1.54 46.3-18.52 10.8-7.71-4.63 1.54-52.47h23.15z" fill-rule="nonzero"/>
                    </g>
                    <g transform="translate(-40.41 -54.835)">
                        <path fill="#ffb8b8" d="m820.01 725.84l3.09 49.4-43.22 18.52 3.08-26.24s12.35-20.07 9.27-41.68h27.78z" fill-rule="nonzero"/>
                    </g>
                    <g transform="translate(-40.41 -54.835)">
                        <path fill="#2f2e41" d="m886.38 353.87s24.69 64.82 29.32 104.95c4.64 40.13 12.35 146.63 12.35 146.63l15.44 137.37-43.22 6.18-18.52-138.92-41.68-137.36-9.26 137.36-7.71 125.03-40.14 1.54-3.08-129.65-16.98-165.15 9.26-78.72 114.22-9.26z" fill-rule="nonzero"/>
                    </g>
                    <g transform="translate(-40.41 -54.835)">
                        <path fill="#2f2e41" d="m909.53 787.58s2.53-25.92 21.33-11.41l3.37-2.48 15.43 33.96s18.52 26.24-13.89 29.33c-32.41 3.08-29.33-29.33-29.33-29.33l-3.08-13.89 1.54-9.1 4.63 2.92z" fill-rule="nonzero"/>
                    </g>
                    <g transform="translate(-40.41 -54.835)">
                        <path fill="#2f2e41" d="m820.01 756.71c7.73 4.42 12.46 12.71 12.35 21.61 0 15.44-1.55 16.98-1.55 16.98l-23.15 6.18s-15.43-1.55-24.7 7.71c-9.26 9.26-55.56 15.44-55.56 3.09s38.59-32.41 38.59-32.41 11.46-19.36 19.62-17.4 11.25 5.05 11.25 6.59c0 1.55-4.63 12.35-4.63 12.35s26.23-6.17 27.78-24.7z" fill-rule="nonzero"/>
                    </g>
                    <g transform="translate(77.836 7.9831)">
                        <circle cy="62.616" cx="698.68" r="38.587" fill="#ffb8b8"/>
                    </g>
                    <g transform="translate(-40.41 -54.835)">
                        <path fill="#ffb8b8" d="m845.48 135.47l16.97 38.58-46.3 66.37s-3.09-72.54-12.35-84.89 41.68-20.06 41.68-20.06z" fill-rule="nonzero"/>
                    </g>
                    <g transform="translate(77.836 7.9831)">
                        <path fill="#cfcce0" d="m705.62 152.91l7.72-20.07 6.17 1.55 7.72-6.18 10.81-33.953 15.43 10.803 20.07 202.2-125.03 3.08 16.98-140.45 15.44-40.13 11.14-14.73 7.38 22.44 6.17 15.44z" fill-rule="nonzero"/>
                    </g>
                    <g transform="translate(-40.41 -54.835)">
                        <path fill="#575a89" d="m859.37 302.16l4.72-139.62s9.17 0.71 12.26 5.34c3.08 4.63 54.02 13.89 54.02 13.89l-9.26 143.54s38.58 114.22 24.69 120.39c-13.89 6.18-38.58 4.64-38.58 4.64l-47.85-148.18z" fill-rule="nonzero"/>
                    </g>
                    <g transform="translate(-40.41 -54.835)">
                        <path fill="#575a89" d="m784.51 284.41l16.37-94.1-36.44 24.65 9.26 67.91-7.71 46.3s-29.33 128.11-20.07 132.74 20.07 0 20.07 0l18.52-129.65v-47.85z" fill-rule="nonzero"/>
                    </g>
                    <g transform="translate(-40.41 -54.835)">
                        <path fill="#575a89" d="m775.25 211.87l-10.81 3.09-4.63 61.73-7.71 54.03-37.05 66.36s18.52-12.34 26.24 23.16l40.8-71.03-6.84-137.34z" fill-rule="nonzero"/>
                    </g>
                    <g transform="translate(-40.41 -54.835)">
                        <path fill="#ffb8b8" d="m895.64 386.28s-43.22 33.96-21.61 41.67c21.61 7.72 35.5-27.78 35.5-27.78l-13.89-13.89z" fill-rule="nonzero"/>
                    </g>
                    <g transform="translate(77.836 7.9831)">
                        <path fill="#cfcce0" d="m803.63 340.44l-13.89 16.98-18.52-32.41 7.72-13.89 24.69 29.32z" fill-rule="nonzero"/>
                    </g>
                    <g transform="translate(-40.41 -54.835)">
                        <path fill="#575a89" d="m918.79 187.17l12.35-6.17s9.26 12.35 10.8 23.15c1.55 10.81 9.26 24.7 9.26 32.41 0 7.72 21.61 80.26 21.61 80.26l-49.39 100.33s-10.8-37.04-33.96-40.13l38.59-54.02-21.61-38.59 12.35-97.24z" fill-rule="nonzero"/>
                    </g>
                    <g transform="translate(-40.41 -54.835)">
                        <path fill="#2f2e41" d="m849.22 88.668l7.28-2.913s-15.21-16.75-36.38-15.293l5.95-6.555s-14.55-5.826-27.78 9.468c-6.95 8.039-15 17.489-20.02 28.135h-7.79l3.25 7.16-11.38 7.16 11.68-1.28c-0.69 3.92-0.8 7.92-0.31 11.87 0.5 3.96 2.52 7.56 5.62 10.06 3.11 2.49 9.03-18.68 9.03-21.59v7.28s7.27-6.56 7.27-10.93l3.97 5.1 1.99-8.01 24.47 8.01-3.97-6.55 15.22 2.18-5.96-8.01s17.2 9.47 17.86 17.48c0.67 8.01 5.7 15.6 5.7 15.6s13.49-37.448-5.7-48.372z" fill-rule="nonzero"/>
                    </g>
                    <g transform="translate(77.836 7.9831)">
                        <ellipse rx="4.322" ry="5.402" cy="56.442" cx="730.32" fill="#ffb8b8"/>
                    </g>
                </g>
                <path fill="#6c63ff" d="m178.6 318.12h-133.24l0.001-37.34h69.549l63.69 37.34z" fill-rule="nonzero"/>
                <g transform="translate(-118.24 -62.818)">
                    <path fill="#3f3d56" d="m163.24 375.81v109.08h432.66v-109.08h-432.66zm168.75 90.78h-140.56v-15.37h140.56v15.37zm235.73-28.55h-376.29v-15.38h376.29v15.38zm0-28.55h-376.29v-15.38h376.29v15.38z" fill-rule="nonzero"/>
                </g>
                <path fill="#6c63ff" d="m178.6 141.68h-133.24l0.001-37.33h69.549l63.69 37.33z" fill-rule="nonzero"/>
                <g transform="translate(-118.24 -62.818)">
                    <path fill="#3f3d56" d="m163.24 201.57v109.09h432.66v-109.09h-432.66zm168.75 90.78h-140.56v-15.37h140.56v15.37zm81.26-28.55h-221.82v-15.37h221.82v15.37zm154.47-28.55h-376.29v-15.37h376.29v15.37z" fill-rule="nonzero"/>
                </g>
                <path fill="#6c63ff" d="m178.6 490.89h-133.24l0.001-37.33h69.549l63.69 37.33z" fill-rule="nonzero"/>
                <g transform="translate(-118.24 -62.818)">
                    <path fill="#3f3d56" d="m163.24 546.39v109.08h432.66v-109.08h-432.66zm250.01 90.78h-221.82v-15.38h221.82v15.38zm0-28.55h-221.82v-15.38h221.82v15.38zm154.47-28.56h-376.29v-15.37h376.29v15.37z" fill-rule="nonzero"/>
                </g>
                <g transform="translate(-38.789)">
                    <path fill="#3f3d56" d="m600.28 223.68h-61.49v-61.5h41.73v1.47h-40.27v58.57h58.57v-29.29h1.46v30.75z" fill-rule="nonzero"/>
                    <g transform="translate(-118.24 -62.818)">
                        <path fill="#cfcce0" d="m687.47 270.46c-1.43-4.2-19.25-18.46-8.33-20.86l8.96 11.94 41.17-41.17 4.14 4.14-45.94 45.95z" fill-rule="nonzero"/>
                    </g>
                    <path fill="#3f3d56" d="m600.28 397.92h-61.49v-61.5h41.73v1.46h-40.27v58.57h58.57v-29.28h1.46v30.75z" fill-rule="nonzero"/>
                    <g transform="translate(-118.24 -62.818)">
                        <path fill="#cfcce0" d="m687.47 444.69c-1.43-4.19-19.25-18.46-8.33-20.85l8.96 11.94 41.17-41.17 4.14 4.14-45.94 45.94z" fill-rule="nonzero"/>
                    </g>
                    <path fill="#3f3d56" d="m600.28 571.42h-61.49v-61.49h41.73v1.46h-40.27v58.57h58.57v-29.29h1.46v30.75z" fill-rule="nonzero"/>
                    <g transform="translate(-118.24 -62.818)">
                        <path fill="#cfcce0" d="m687.47 618.2c-1.43-4.2-19.25-18.46-8.33-20.86l8.96 11.94 41.17-41.17 4.14 4.14-45.94 45.95z" fill-rule="nonzero"/>
                    </g>
                </g>
            </g>
    </g>
</svg>
